!!!SOCIAL_FUNCTION:	songs of war
!!!PDT:	1918

Specific Region: Dakotas, Minnesota, Montana, Nebraska
!!!REG: Dakotas and Montana
!!!LING_GROUP: Siouan
!!!LANG: Tone
!!!OTL@ENG: Song in Honor of Onihang
!!!ONM: No. 150
**kern
*Imale
*clefF4
*k[b-e-a-]
*M3/4
*MM76
16f
=1
8.f
16e-
4.c
8e-
=2
8.e-
16c
4c
8c
8f
=3
8.f
16e-
4c
8c
8e-
=4
8.c
16B-
4G
8G
8G
=5||
*M2/4
8.F
16G
4F
=6
8E-
[8C
8C]
8F
=7||
*M3/4
8.E-
16F
4E-
8.E-
16C
=8||
*M2/4
[2C
=9
4.C]
8c
=10
16.f
32f
8f
16f
8.e-
=11
8f
16.f
32e-
4c
=12
(8B-
8G)
8G
16.G
32G
=13
8.F
16G
4F
=14
8E-
[8C
8C]
8F
=15||
*M3/4
8.E-
16F
4E-
8.E-
16C
=16
2.C
==
*-
!!!CNT: Native American -- Sioux
!!!MRD: 1911/07//-1914///
!!!OCL: Frances Densmore
!!!YOR1: Teton Sioux Music, Bulletin 61,
!!!YOR2: Bureau of American Ethnology, Smithsonian Institution
!!!PPR: Government Printing Office
!!!PPP: Washington, D.C.
!!!PDT: 1918///
!!!ENC: Craig Stuart Sapp
!!!END: 2002/03/25/
!!!EEV: 2002/03/31/
!!!AGN: War Song/Song of a Typical War Expedition
!!!MPN@@SIO: Shiya'ka
!!!MPN@ENG: Teal Duck
!!!TXO: Teton Sioux
!!!MLC: Standing Rock Reservation, South Dakota, United States of America
!!!ARL: 45.9/-100.7#
!!!catalog: Catalogue No. 460
!!!PPG: 369
!!!EFL: 154/245
!!!VTS: 3788124855
